X:311
T: ICH SOLLT EIN NOENNLEIN WERDEN
N: E0919
O: Europa, Mitteleuropa, Deutschland
R: Ehestands - Lied, Nonnen - Klage
M: 4/4
L: 1/4
K: C
C | CCB,A, | G,2G,
G, | A,CCB, | C2z
C | CCB,A, | G,2G,
G, | A,CCB, | C2z
C | CCGC | B,B,A,2
DDDC | B,A,G,
G, | A,CCB, | C2z
C | CCGC | B,B,A,2
DDDC | B,A,G,
G, | A,CCB, | C2z

